findly-builder/apps/searchassist/src/assets/icons/edit-rule.svg

<svg width="15" height="14" viewBox="0 0 15 14" fill="none" xmlns="http://www.w3.org/2000/svg">
<path fill-rule="evenodd" clip-rule="evenodd" d="M1.47526 1.46289C1.47526 1.19358 1.69358 0.975263 1.96289 0.975263H12.5431C12.8124 0.975263 13.0307 1.19358 13.0307 1.46289V4.61961C13.0307 4.88893 13.249 5.10725 13.5183 5.10725C13.7876 5.10725 14.0059 4.88893 14.0059 4.61961V1.46289C14.0059 0.65496 13.351 0 12.5431 0H1.96289C1.15496 0 0.5 0.65496 0.5 1.46289V11.7287C0.5 12.5366 1.15496 13.1916 1.96289 13.1916H5.11961C5.38893 13.1916 5.60725 12.9732 5.60725 12.7039C5.60725 12.4346 5.38893 12.2163 5.11961 12.2163H1.96289C1.69358 12.2163 1.47526 11.998 1.47526 11.7287V1.46289ZM13.0046 5.81023C12.6236 5.41462 11.9913 5.41146 11.6064 5.80323L6.8046 10.6908L6.61062 12.941C6.56152 13.5105 7.0106 14 7.58228 14H9.91273L14.6827 8.8831C15.0361 8.50406 15.0313 7.91487 14.6718 7.5416L13.0046 5.81023ZM7.58228 13.0247L7.74613 11.124L12.3021 6.48671L13.9693 8.21809L9.48858 13.0247H7.58228ZM4.2215 3.04769C4.2215 3.51897 3.83945 3.90103 3.36816 3.90103C2.89687 3.90103 2.51481 3.51897 2.51481 3.04769C2.51481 2.5764 2.89687 2.19434 3.36816 2.19434C3.83945 2.19434 4.2215 2.5764 4.2215 3.04769ZM5.81658 2.49334C5.5061 2.49334 5.25441 2.74503 5.25441 3.05551C5.25441 3.36598 5.5061 3.61767 5.81658 3.61767H10.6656C10.9761 3.61767 11.2278 3.36598 11.2278 3.05551C11.2278 2.74503 10.9761 2.49334 10.6656 2.49334H5.81658ZM4.2215 5.60769C4.2215 6.07898 3.83945 6.46104 3.36816 6.46104C2.89687 6.46104 2.51481 6.07898 2.51481 5.60769C2.51481 5.1364 2.89687 4.75435 3.36816 4.75435C3.83945 4.75435 4.2215 5.1364 4.2215 5.60769ZM5.81658 5.05334C5.5061 5.05334 5.25441 5.30503 5.25441 5.61551C5.25441 5.92599 5.5061 6.17768 5.81658 6.17768H7.67894C7.98942 6.17768 8.24111 5.92599 8.24111 5.61551C8.24111 5.30503 7.98942 5.05334 7.67894 5.05334H5.81658Z" fill="#202124"/>
</svg>

<svg width="15" height="14" fill="none" xmlns="http://www.w3.org/2000/svg"><path fill-rule="evenodd" clip-rule="evenodd" d="M1.475 1.463c0-.27.219-.488.488-.488h10.58c.27 0 .488.219.488.488V4.62a.488.488 0 1 0 .975 0V1.463C14.006.655 13.35 0 12.543 0H1.963C1.155 0 .5.655.5 1.463v10.266c0 .808.655 1.463 1.463 1.463H5.12a.488.488 0 0 0 0-.976H1.963a.488.488 0 0 1-.488-.487V1.463Zm11.53 4.347a.975.975 0 0 0-1.399-.007l-4.801 4.888-.194 2.25c-.05.57.4 1.059.971 1.059h2.33l4.77-5.117a.975.975 0 0 0-.01-1.341L13.005 5.81Zm-5.423 7.215.164-1.901 4.556-4.637 1.667 1.731-4.48 4.807H7.582Zm-3.36-9.977a.853.853 0 1 1-1.707 0 .853.853 0 0 1 1.706 0Zm1.595-.555a.562.562 0 1 0 0 1.125h4.849a.562.562 0 1 0 0-1.125h-4.85ZM4.22 5.608a.853.853 0 1 1-1.706 0 .853.853 0 0 1 1.706 0Zm1.596-.555a.562.562 0 1 0 0 1.125h1.862a.562.562 0 1 0 0-1.125H5.817Z" fill="#202124"/></svg>
